X: 19759
T: Jenny's Chickens
R: reel
M: 4/4
K: Bminor
|~f3e fece|~f3a eAce|~f3a fece|~f2af eAce|
~f3a fece|~f3e~e2ce|~f3a fece|~f2af eAce|
|:fBBA ~B3e|fB ~B2 ABce|fBBA ~B3e|~f2af eAce|
fB~B2 fB~B2|fB ~B2 ABce|fBBA ~B3e|~f2af eAcA:|

